src/img/react.svg

<svg width="38" height="38" viewBox="0 0 38 38" fill="none" xmlns="http://www.w3.org/2000/svg">
<path d="M18.9986 22.6992C20.7561 22.6992 22.1808 21.2124 22.1808 19.3783C22.1808 17.5443 20.7561 16.0575 18.9986 16.0575C17.2411 16.0575 15.8163 17.5443 15.8163 19.3783C15.8163 21.2124 17.2411 22.6992 18.9986 22.6992Z" fill="#272727"/>
<path d="M18.9987 31.5903C21.4966 34.1256 23.9602 35.6253 25.9448 35.6253C26.595 35.6253 27.2109 35.4825 27.7241 35.1611C29.5034 34.0899 30.1536 31.4118 29.5377 27.5911C29.435 26.9126 29.2981 26.2342 29.1271 25.52C29.8114 25.3058 30.4273 25.0915 31.0432 24.8773C34.4992 23.4847 36.4154 21.5565 36.4154 19.4497C36.4154 17.3073 34.4992 15.379 31.0432 14.0221C30.4273 13.7722 29.8114 13.5579 29.1271 13.3794C29.2981 12.6652 29.435 11.9868 29.5377 11.3084C30.1194 7.41621 29.4692 4.70242 27.6899 3.63119C27.1767 3.30982 26.5607 3.16699 25.9106 3.16699C23.9602 3.16699 21.4624 4.66672 18.9645 7.20197C16.5008 4.66672 14.0372 3.16699 12.0526 3.16699C11.4024 3.16699 10.7865 3.30982 10.2733 3.63119C8.49395 4.70242 7.84382 7.3805 8.45973 11.2012C8.56239 11.8797 8.69925 12.5581 8.87034 13.2723C8.18599 13.4865 7.57008 13.7008 6.95417 13.915C3.49821 15.3076 1.58203 17.2358 1.58203 19.3426C1.58203 21.4851 3.49821 23.4133 6.95417 24.7702C7.57008 25.0201 8.18599 25.2344 8.87034 25.4129C8.69925 26.1271 8.56239 26.8055 8.45973 27.484C7.87804 31.3047 8.52817 34.0185 10.2733 35.054C10.7865 35.3754 11.4024 35.5182 12.0526 35.5182C14.0372 35.5896 16.5008 34.0899 18.9987 31.5903ZM17.0825 26.7698C17.6984 26.8055 18.3486 26.8055 18.9987 26.8055C19.6488 26.8055 20.299 26.8055 20.9149 26.7698C20.299 27.6268 19.6488 28.4124 18.9987 29.1622C18.3486 28.4124 17.6984 27.6268 17.0825 26.7698ZM12.8396 23.0919C13.1817 23.6989 13.4897 24.2703 13.8661 24.8416C12.8053 24.6988 11.813 24.5202 10.855 24.306C11.1629 23.3419 11.5051 22.342 11.9157 21.3422C12.1894 21.9136 12.4974 22.5206 12.8396 23.0919ZM10.855 14.4863C11.813 14.2721 12.8053 14.0936 13.8661 13.9507C13.5239 14.522 13.1817 15.0934 12.8396 15.7004C12.4974 16.3074 12.1894 16.8788 11.9157 17.4858C11.4709 16.4503 11.1287 15.4505 10.855 14.4863ZM12.7369 19.3783C13.1817 18.4142 13.6608 17.4501 14.2083 16.486C14.7215 15.5576 15.3032 14.6292 15.8849 13.7008C16.9114 13.6294 17.938 13.5936 18.9987 13.5936C20.0937 13.5936 21.1202 13.6294 22.1125 13.7008C22.7284 14.6292 23.2759 15.5576 23.7891 16.486C24.3366 17.4501 24.8157 18.4142 25.2605 19.3783C24.8157 20.3424 24.3366 21.3065 23.7891 22.2706C23.2759 23.199 22.6942 24.1274 22.1125 25.0558C21.086 25.1272 20.0594 25.163 18.9987 25.163C17.9037 25.163 16.8772 25.1272 15.8849 25.0558C15.269 24.1274 14.7215 23.199 14.2083 22.2706C13.6608 21.3065 13.1817 20.3424 12.7369 19.3783ZM26.1159 17.4501L25.1921 15.6647C24.8499 15.0577 24.5419 14.4863 24.1655 13.915C25.2263 14.0578 26.2186 14.2364 27.1767 14.4506C26.8687 15.4505 26.5265 16.4503 26.1159 17.4501ZM26.1159 21.3065C26.5265 22.3063 26.8687 23.3062 27.1767 24.2703C26.2186 24.4845 25.2263 24.663 24.1655 24.8059C24.5077 24.2346 24.8499 23.6632 25.1921 23.0562C25.5 22.5206 25.808 21.9136 26.1159 21.3065ZM26.9029 33.6971C26.6292 33.8756 26.287 33.9471 25.9106 33.9471C24.234 33.9471 22.1467 32.5187 20.0937 30.3763C21.086 29.2693 22.044 28.0196 23.0021 26.627C24.6104 26.4841 26.1501 26.2342 27.5873 25.8771C27.7584 26.5198 27.861 27.1626 27.9637 27.8053C28.4427 30.8405 28.0663 33.0187 26.9029 33.6971ZM28.6822 14.8791C32.5146 16.0218 34.8071 17.7715 34.8071 19.3783C34.8071 20.7709 33.2331 22.1635 30.4615 23.2704C29.9141 23.4847 29.2981 23.6989 28.6822 23.8775C28.2374 22.4135 27.6899 20.9137 27.0056 19.3783C27.6899 17.8429 28.2716 16.3431 28.6822 14.8791ZM25.9448 4.80955C26.3212 4.80955 26.6292 4.88096 26.9371 5.0595C28.0663 5.73795 28.4769 7.88041 27.9979 10.9513C27.8952 11.5583 27.7584 12.201 27.6215 12.8795C26.1844 12.5581 24.6446 12.3082 23.0364 12.1296C22.1125 10.737 21.1202 9.48726 20.1279 8.38032C22.1809 6.27356 24.2682 4.80955 25.9448 4.80955ZM20.9149 11.9868C20.299 11.9511 19.6488 11.9511 18.9987 11.9511C18.3486 11.9511 17.6984 11.9511 17.0825 11.9868C17.6984 11.1298 18.3486 10.3442 18.9987 9.59438C19.6488 10.3442 20.299 11.1655 20.9149 11.9868ZM11.0945 5.0595C11.3682 4.88096 11.7104 4.80955 12.0868 4.80955C13.7634 4.80955 15.8507 6.23786 17.9037 8.38032C16.9114 9.48726 15.9533 10.737 14.9953 12.1296C13.387 12.2725 11.8473 12.5224 10.4101 12.8795C10.239 12.2368 10.1364 11.594 10.0337 10.9513C9.55469 7.91612 9.93108 5.77366 11.0945 5.0595ZM9.31517 23.8775C5.48282 22.7348 3.19025 20.9851 3.19025 19.3783C3.19025 17.9857 4.76425 16.5931 7.53586 15.4862C8.08334 15.2719 8.69925 15.0577 9.31517 14.8791C9.75999 16.3431 10.3075 17.8429 10.9918 19.3783C10.3075 20.9137 9.72578 22.4492 9.31517 23.8775ZM10.0337 27.8053C10.1364 27.1983 10.2733 26.5556 10.4101 25.8771C11.8473 26.1985 13.387 26.4484 14.9953 26.627C15.9191 28.0196 16.9114 29.2693 17.9037 30.3763C15.8507 32.483 13.7634 33.9471 12.0868 33.9471C11.7104 33.9471 11.4024 33.8756 11.0945 33.6971C9.93108 33.0187 9.55469 30.8405 10.0337 27.8053Z" fill="#272727"/>
</svg>

<svg width="38" height="38" viewBox="0 0 38 38" fill="none" xmlns="http://www.w3.org/2000/svg"><path d="M18.999 22.7c1.757 0 3.182-1.488 3.182-3.322s-1.425-3.32-3.182-3.32c-1.758 0-3.183 1.486-3.183 3.32 0 1.834 1.425 3.321 3.183 3.321z" fill="#272727"/><path d="M18.999 31.59c2.498 2.536 4.961 4.035 6.946 4.035.65 0 1.266-.142 1.78-.464 1.778-1.071 2.429-3.75 1.813-7.57a24.749 24.749 0 00-.41-2.071c.683-.214 1.3-.428 1.915-.643 3.456-1.392 5.372-3.32 5.372-5.427 0-2.143-1.916-4.071-5.372-5.428a15.235 15.235 0 00-1.916-.643c.171-.714.308-1.392.41-2.07.582-3.893-.068-6.607-1.847-7.678-.513-.321-1.13-.464-1.78-.464-1.95 0-4.448 1.5-6.945 4.035-2.464-2.535-4.928-4.035-6.912-4.035-.65 0-1.267.143-1.78.464-1.779 1.071-2.43 3.75-1.813 7.57.102.679.24 1.357.41 2.071-.684.214-1.3.429-1.916.643-3.456 1.393-5.372 3.32-5.372 5.428 0 2.142 1.916 4.07 5.372 5.427.616.25 1.232.464 1.916.643a24.697 24.697 0 00-.41 2.071c-.582 3.82.068 6.535 1.813 7.57.514.321 1.13.464 1.78.464 1.984.072 4.448-1.428 6.946-3.928zm-1.916-4.82c.615.035 1.266.035 1.916.035.65 0 1.3 0 1.916-.035a33.43 33.43 0 01-1.916 2.392 33.43 33.43 0 01-1.916-2.392zm-4.243-3.678c.342.607.65 1.178 1.026 1.75a35.31 35.31 0 01-3.011-.536c.308-.964.65-1.964 1.06-2.964.274.572.582 1.179.925 1.75zm-1.985-8.606a35.35 35.35 0 013.011-.535 75.566 75.566 0 00-1.026 1.75 22.15 22.15 0 00-.924 1.785 24.536 24.536 0 01-1.061-3zm1.882 4.892a38.36 38.36 0 011.471-2.892c.514-.928 1.095-1.857 1.677-2.785a44.62 44.62 0 013.114-.107c1.095 0 2.121.035 3.114.107a40.047 40.047 0 011.676 2.785 38.36 38.36 0 011.471 2.892 38.36 38.36 0 01-1.47 2.893c-.514.928-1.096 1.856-1.677 2.785a44.62 44.62 0 01-3.114.107 43.43 43.43 0 01-3.114-.107 40.047 40.047 0 01-1.677-2.785 38.36 38.36 0 01-1.471-2.893zm13.379-1.928l-.924-1.785c-.342-.607-.65-1.179-1.026-1.75a35.32 35.32 0 013.01.536c-.307 1-.65 2-1.06 3zm0 3.857c.41 1 .753 2 1.06 2.963-.957.215-1.95.393-3.01.536.342-.571.684-1.143 1.026-1.75.308-.535.616-1.142.924-1.75zm.787 12.39c-.274.179-.616.25-.992.25-1.677 0-3.764-1.428-5.817-3.57.992-1.108 1.95-2.357 2.908-3.75a30.136 30.136 0 004.585-.75c.171.643.274 1.286.377 1.928.479 3.035.102 5.214-1.061 5.892zm1.78-18.818c3.832 1.143 6.124 2.893 6.124 4.5 0 1.392-1.574 2.784-4.346 3.891-.547.215-1.163.429-1.779.608a38.537 38.537 0 00-1.676-4.5c.684-1.535 1.266-3.035 1.676-4.499zM25.944 4.81c.376 0 .684.072.992.25 1.13.679 1.54 2.821 1.06 5.892-.102.607-.239 1.25-.375 1.928a42.698 42.698 0 00-4.586-.75 32.77 32.77 0 00-2.908-3.749c2.053-2.106 4.14-3.57 5.817-3.57zm-5.03 7.178c-.616-.036-1.266-.036-1.916-.036-.65 0-1.3 0-1.916.036a33.435 33.435 0 011.916-2.393c.65.75 1.3 1.572 1.916 2.393zm-9.82-6.928c.273-.178.615-.25.992-.25 1.676 0 3.764 1.429 5.817 3.571-.993 1.107-1.95 2.357-2.909 3.75a30.136 30.136 0 00-4.585.75c-.171-.643-.274-1.286-.376-1.929-.48-3.035-.103-5.177 1.06-5.892zm-1.78 18.819c-3.832-1.143-6.125-2.893-6.125-4.5 0-1.392 1.574-2.785 4.346-3.892a21.082 21.082 0 011.78-.607 38.54 38.54 0 001.676 4.5c-.685 1.535-1.266 3.07-1.677 4.498zm.719 3.927c.102-.607.24-1.25.376-1.928a42.7 42.7 0 004.585.75 32.765 32.765 0 002.909 3.75c-2.053 2.106-4.14 3.57-5.817 3.57-.377 0-.685-.071-.992-.25-1.164-.678-1.54-2.857-1.061-5.892z" fill="#272727"/></svg>
